dist/img/icons/personal/ic_newpets.svg

<svg width="130" height="130" viewBox="0 0 130 130" fill="none" xmlns="http://www.w3.org/2000/svg">
<path d="M83.5003 53.4483C83.8612 53.3268 84.3191 52.7343 84.3428 52.3585C84.8722 43.2944 77.3876 31.211 74.6923 27.1768C72.5224 28.0417 70.411 29.4397 68.4618 31.5701C68.4618 31.5701 64.569 34.1825 63.188 46.8753C70.4689 56.3046 79.516 54.7627 83.5003 53.4483Z" fill="white"/>
<path d="M112.375 37.3596L100.447 34.4481C100.447 34.4481 100.107 31.5703 96.725 30.3878C94.2597 29.5238 85.765 24.6416 77.4071 26.3659C80.567 31.1757 87.5964 43.0316 87.0406 52.5145C86.9579 54.0055 85.7726 55.5459 84.3476 56.0169C82.9778 56.4727 80.5194 57.1036 77.5316 57.1036C73.2028 57.1036 67.7657 55.7723 62.8674 50.654C62.7713 52.2805 62.7165 54.0397 62.7068 55.9432C62.6519 65.7613 50.1806 75.0703 50.1806 75.0703L48.5195 78.5127C51.9098 85.8533 57.2245 92.1274 63.8226 96.6808C64.1217 91.9917 65.2976 88.3183 66.6595 85.5578C69.2388 80.3146 72.8561 77.4047 74.702 76.1734C75.099 65.3519 78.6114 62.1892 81.5416 61.4661C82.4417 61.2431 83.3906 61.4352 84.137 61.9955C84.9865 62.6295 85.5329 63.676 85.5883 64.7994C85.739 67.7081 87.4582 69.7501 88.2734 70.5611C89.5953 70.6841 90.8573 70.8936 92.0452 71.1815L92.1543 70.1611L93.0623 61.3446C93.2162 59.8566 94.5536 58.6022 96.0341 58.3901C101.656 57.5712 114.181 54.2413 114.995 40.7095C115.089 39.217 113.828 37.716 112.375 37.3596ZM93.7917 40.5029C92.9502 40.5029 92.2668 39.8225 92.2668 38.98C92.2668 38.1375 92.9502 37.4572 93.7917 37.4572C94.6352 37.4572 95.3152 38.1375 95.3152 38.98C95.3122 39.821 94.6336 40.5029 93.7917 40.5029Z" fill="white"/>
<path d="M100.451 80.7925C99.9998 76.9561 94.5845 73.7949 87.5869 73.3458C87.5869 73.3458 83.8715 70.4895 83.622 65.5591C83.5811 64.8127 83.0232 64.0708 82.2986 64.2496C80.4288 64.7096 77.254 67.1101 77.0958 78.0735C77.0958 78.0735 66.9258 83.2042 66.1909 97.996C72.7099 101.913 80.3066 104.21 88.4152 104.344L88.3243 102.225C88.2906 101.478 88.8322 100.66 89.5307 100.398L98.1932 97.1496C98.1932 97.1496 102.256 97.3775 103.946 94.3275C104.801 92.7901 105.595 91.7158 106.18 91.0236C106.658 90.4542 106.651 89.6402 106.115 89.1198C104.346 87.4115 100.788 83.6594 100.451 80.7925ZM95.3121 84.5058C94.472 84.5058 93.7902 83.8273 93.7902 82.9842C93.7902 82.1393 94.472 81.4592 95.3121 81.4592C96.1552 81.4592 96.8371 82.1393 96.8371 82.9842C96.8374 83.827 96.1555 84.5058 95.3121 84.5058Z" fill="white"/>
<path d="M15 43.287C15 45.8523 17.0796 47.9319 19.6448 47.9319H26.7669V54.7443C26.7669 57.5234 29.0198 59.7762 31.7988 59.7762C34.5779 59.7762 36.8308 57.5234 36.8308 54.7443V47.9319H43.9529C46.5181 47.9319 48.5977 45.8523 48.5977 43.287C48.5977 40.7218 46.5181 38.6422 43.9529 38.6422H36.8308V31.8298C36.8308 29.0507 34.5779 26.7979 31.7988 26.7979C29.0198 26.7979 26.7669 29.0507 26.7669 31.8298V38.6422H19.6448C17.0796 38.6422 15 40.7218 15 43.287Z" fill="white"/>
</svg>

<svg width="130" height="130" fill="none" xmlns="http://www.w3.org/2000/svg"><path d="M83.5 53.448c.361-.121.82-.714.843-1.09.53-9.064-6.955-21.147-9.65-25.181-2.17.865-4.282 2.263-6.231 4.393 0 0-3.893 2.612-5.274 15.305 7.28 9.43 16.328 7.888 20.312 6.573z" fill="#fff"/><path d="M112.375 37.36l-11.928-2.912s-.34-2.878-3.722-4.06c-2.465-.864-10.96-5.746-19.318-4.022 3.16 4.81 10.19 16.666 9.634 26.148-.083 1.491-1.268 3.032-2.693 3.503a22.049 22.049 0 01-6.816 1.087c-4.33 0-9.766-1.332-14.665-6.45a98.361 98.361 0 00-.16 5.29C62.652 65.76 50.18 75.07 50.18 75.07l-1.661 3.443A45.063 45.063 0 0063.823 96.68c.299-4.69 1.475-8.363 2.836-11.123 2.58-5.243 6.197-8.153 8.043-9.385.397-10.821 3.91-13.984 6.84-14.707a3.08 3.08 0 012.595.53c.85.633 1.396 1.68 1.451 2.803.151 2.91 1.87 4.951 2.685 5.762 1.322.123 2.584.333 3.772.62l.11-1.02.907-8.816c.154-1.488 1.492-2.743 2.972-2.955 5.622-.819 18.147-4.149 18.961-17.68.094-1.493-1.167-2.994-2.62-3.35zm-18.583 3.143a1.523 1.523 0 11-.003-3.047 1.523 1.523 0 01.003 3.047z" fill="#fff"/><path d="M100.451 80.793c-.451-3.837-5.866-6.998-12.864-7.447 0 0-3.716-2.856-3.965-7.787-.04-.746-.599-1.488-1.323-1.31-1.87.46-5.045 2.861-5.203 13.825 0 0-10.17 5.13-10.905 19.922a44.462 44.462 0 0022.224 6.348l-.09-2.119c-.034-.747.507-1.565 1.206-1.827l8.662-3.248s4.063.227 5.753-2.823c.855-1.537 1.649-2.611 2.234-3.303.478-.57.471-1.384-.065-1.904-1.769-1.709-5.327-5.46-5.664-8.328zm-5.139 3.713a1.52 1.52 0 01-1.522-1.522 1.523 1.523 0 111.522 1.522zM15 43.287a4.645 4.645 0 004.645 4.645h7.122v6.812a5.032 5.032 0 1010.064 0v-6.812h7.122a4.645 4.645 0 000-9.29H36.83V31.83a5.032 5.032 0 00-10.064 0v6.812h-7.122A4.645 4.645 0 0015 43.287z" fill="#fff"/></svg>
